!!!COM: Beethoven
!!!OTL: 32 Variationen fur das pianoforte
!!!Variation: Variation 25
**function	**harm	**kern	**kern
*M3/4	*M3/4	*staff2	*staff1
*c:	*c:	*clefF4	*clefG2
*tb16	*	*k[b-e-a-]	*k[b-e-a-]
*	*	*M3/4	*M3/4
*	*	*c:	*c:
=	=	=	=
2.T	2.i	8CC	16ee-LL
.	.	.	16g
.	.	8r	16a-
.	.	.	16gJJ
.	.	8CC	16ee-LL
.	.	.	16g
.	.	8r	16a-
.	.	.	16gJJ
.	.	8CC	16ee-LL
.	.	.	16g
.	.	8r	16a-
.	.	.	16gJJ
=	=	=202	=202
2.T	2.V6	8BBB	16ddLL
.	.	.	16g
.	.	8r	16a
.	.	.	16gJJ
.	.	4r	16f#LL
.	.	.	16g
.	.	.	16b
.	.	.	16ddJJ
.	.	4r	16ggLL
.	.	.	16bb
.	.	.	16ddd
.	.	.	16ggJJ
=	=	=203	=203
2.T	2.viio43/IV	8BBB-	16dd-LL
.	.	.	16e
.	.	8r	16f
.	.	.	16eJJ
.	.	8BBB-	16dd-LL
.	.	.	16e
.	.	8r	16f
.	.	.	16eJJ
.	.	8BBB-	16dd-LL
.	.	.	16e
.	.	8r	16f
.	.	.	16eJJ
=	=	=204	=204
2.P	2.IV6	8AAA	16ccLL
.	.	.	16f
.	.	8r	16g
.	.	.	16fJJ
.	.	4r	16eLL
.	.	.	16f
.	.	.	16a
.	.	.	16ccJJ
.	.	4r	16ffLL
.	.	.	16aa
.	.	.	16ccc
.	.	.	16ffJJ
=	=	=205	=205
2.P	2.Gr65	8AAA-	16ff#LL
.	.	.	16cc
.	.	8r	16dd
.	.	.	16ccJJ
.	.	8AAA-	16ff#LL
.	.	.	16cc
.	.	8r	16dd
.	.	.	16ccJJ
.	.	8AAA-	16ff#LL
.	.	.	16cc
.	.	8r	16dd
.	.	.	16ccJJ
=	=	=206	=206
4D	4i64	8GGG	16ggLL
.	.	.	16cc
.	.	8r	16dd
.	.	.	16ccJJ
2@65D	2ii@65	8FFF	16aa-LL
.	.	.	16cc
.	.	8r	16dd
.	.	.	16ffJJ
.	.	4r	16aa-LL
.	.	.	16ccc
.	.	.	16ddd
.	.	.	16fffJJ
=	=	=207	=207
2@65D	2ii@65	4r	16aaa-LL
.	.	.	16ggg
.	.	.	16fff
.	.	.	16eee-JJ
*	*	*clefG2	*
.	.	8f 8a- 8dd	16dddLL
.	.	.	16eee-
.	.	8r	16fff
.	.	.	16cccJJ
4D	4V7	8g 8b 8dd	16bbLL
.	.	.	16ccc
.	.	8r	16ddd
.	.	.	16ffJJ
=	=	=208	=208
2.T	2.i	8c 8e- 8g 8cc	16ee-LL
.	.	.	16ff
.	.	8r	16gg
.	.	.	16ccJJ
.	.	4r	16e-LL
.	.	.	16f
.	.	.	16g
.	.	.	16cJJ
*	*	*clefF4	*
.	.	16E-LL	4r
.	.	16F	.
.	.	16G	.
.	.	16CJJ	.
==	==	=209||	=209||
*-	*-	*-	*-
